assets/web/icons/video-call.svg

<svg width="24" height="24" viewBox="0 0 24 24" fill="none" xmlns="http://www.w3.org/2000/svg">
<path d="M2 8C2 5.79086 3.79086 4 6 4H16C17.1046 4 18 4.89543 18 6V10.2858L21.3492 7.41504C21.9979 6.85903 23 7.31994 23 8.1743V15.8259C23 16.6802 21.9979 17.1411 21.3492 16.5851L18 13.7144V18C18 19.1046 17.1046 20 16 20H6C3.79086 20 2 18.2091 2 16V8ZM6 6C4.89543 6 4 6.89543 4 8V16C4 17.1046 4.89543 18 6 18H16V6H6ZM21 13.6516V10.3485L19.0732 12.0001L21 13.6516Z" fill="currentColor"/>
</svg>

<svg xmlns="http://www.w3.org/2000/svg" width="24" height="24" fill="currentColor" viewBox="0 0 24 24">
  <path d="M2 8a4 4 0 0 1 4-4h10a2 2 0 0 1 2 2v4.286l3.35-2.871a1 1 0 0 1 1.65.76v7.65a1 1 0 0 1-1.65.76L18 13.715V18a2 2 0 0 1-2 2H6a4 4 0 0 1-4-4V8Zm4-2a2 2 0 0 0-2 2v8a2 2 0 0 0 2 2h10V6H6Zm15 7.652v-3.303L19.073 12 21 13.652Z"/>
</svg>
